X:0
T:Earworm, The
T:Teddy Bear
M:C|
C:© Paul Gitlitz 1988
R:Reel
K:G
"G"Gd2G "C"c2GB-|"G"BAG2"D"F2D2|"G"Gd2G "C"c2GB-|"G"BAG2"D"(FG)A2|!
"G"Gd2G "C"c2GB-|"G"BAG2"D"F2D2|"G"Gd2G "C"c2GB-|"G"BAG2"D"(FG)A2:|!
|:"G"B>BGzB>BG2-|"C"Gc2c"D"d2c2|"G"B>BGzB>BG2-|"C"Gc2A"D"F2D2|!
"G"B>BGzB>BG2-|"C"Gc2e"D"d2c2|"G"B>BGzB>BG2-|"C"Gc2A"D"F2E2:|!
